;FLAVOR:Marlin
;TIME:10156
;Filament used: 5.89842m
;Layer height: 0.2
;MINX:53.078
;MINY:123.879
;MINZ:0.2
;MAXX:246.922
;MAXY:176.121
;MAXZ:10.2
;Generated with Cura_SteamEngine 4.4.1
M140 S60
M105
M190 S60
M104 S195
M105
M109 S195
M82 ;absolute extrusion mode
G28 ; home all axes
 M117 Purge extruder
 G92 E0 ; reset extruder
 G1 Z1.0 F3000 ; move z up little to prevent scratching of surface
 G1 X2 Y20 Z0.3 F5000.0 ; move to start-line position
 G1 X2 Y200.0 Z0.3 F1500.0 E15 ; draw 1st line
 G1 X2 Y200.0 Z0.4 F5000.0 ; move to side a little
 G1 X2 Y20 Z0.4 F1500.0 E30 ; draw 2nd line
 G92 E0 ; reset extruder
 G1 Z1.0 F3000 ; move z up little to prevent scratching of surface
G92 E0
G92 E0
G1 F1500 E-2
;LAYER_COUNT:50
;LAYER:0
M107
G1 F300 Z0.4
G0 F6000 X66.749 Y127.036 Z0.4
;TYPE:SKIRT
G1 F300 Z0.2
G1 F1500 E0
G1 F1200 X67.454 Y126.666 E0.02738
G1 X68.283 Y126.267 E0.05902
G1 X69.008 Y125.948 E0.08626
G1 X70.007 Y125.549 E0.12326
G1 X70.762 Y125.278 E0.15085
G1 X71.691 Y124.98 E0.1844
G1 X72.428 Y124.77 E0.21075
G1 X73.388 Y124.531 E0.24478
G1 X74.187 Y124.362 E0.27286
G1 X75.17 Y124.19 E0.30718
G1 X75.957 Y124.08 E0.33451
G1 X77.007 Y123.97 E0.37082
G1 X77.808 Y123.914 E0.39843
G1 X78.786 Y123.88 E0.43209
G1 X79.569 Y123.879 E0.45902
G1 X80.566 Y123.912 E0.49332
G1 X81.347 Y123.965 E0.52024
G1 X82.334 Y124.065 E0.55436
G1 X83.129 Y124.173 E0.58195
G1 X84.157 Y124.35 E0.61783
G1 X84.535 Y124.422 E0.63106
G1 X84.772 Y124.471 E0.63938
G1 X85.112 Y124.547 E0.65137
G1 X85.414 Y124.619 E0.66204
G1 X85.812 Y124.721 E0.67617
G1 X86.503 Y124.912 E0.70083
G1 X86.865 Y125.019 E0.71381
G1 X87.192 Y125.121 E0.72559
G1 X87.477 Y125.213 E0.73589
G1 X89.754 Y125.989 E0.81862
G1 X92.137 Y126.73 E0.90445
G1 X94.552 Y127.407 E0.9907
G1 X96.971 Y128.012 E1.07646
G1 X99.405 Y128.546 E1.16215
G1 X101.903 Y129.023 E1.24962
G1 X104.32 Y129.413 E1.33381
G1 X106.844 Y129.748 E1.42138
G1 X109.306 Y130.004 E1.5065
G1 X111.805 Y130.193 E1.59269
G1 X114.299 Y130.31 E1.67856
G1 X117.28 Y130.359 E1.78109
G1 X182.707 Y130.359 E4.03119
G1 X185.291 Y130.322 E4.12007
G1 X187.818 Y130.215 E4.20705
G1 X190.28 Y130.041 E4.29193
G1 X192.79 Y129.792 E4.37868
G1 X195.274 Y129.474 E4.4648
G1 X197.73 Y129.088 E4.5503
G1 X200.195 Y128.63 E4.63653
G1 X202.65 Y128.101 E4.72289
G1 X205.047 Y127.514 E4.80777
G1 X207.483 Y126.844 E4.89465
G1 X209.85 Y126.119 E4.97979
G1 X211.549 Y125.537 E5.04155
G1 X211.706 Y125.485 E5.04724
G1 X212.673 Y125.169 E5.08223
G1 X213.075 Y125.046 E5.09668
G1 X214.082 Y124.757 E5.13271
G1 X214.832 Y124.568 E5.15931
G1 X215.787 Y124.362 E5.19291
G1 X216.567 Y124.222 E5.22017
G1 X217.562 Y124.078 E5.25474
G1 X218.367 Y123.99 E5.28259
G1 X219.371 Y123.916 E5.31721
G1 X220.151 Y123.885 E5.34406
G1 X221.162 Y123.879 E5.37883
G1 X221.964 Y123.902 E5.40642
G1 X222.953 Y123.965 E5.4405
G1 X223.75 Y124.044 E5.46805
G1 X224.781 Y124.182 E5.50382
G1 X225.555 Y124.312 E5.53081
G1 X226.497 Y124.504 E5.56388
G1 X227.252 Y124.685 E5.59058
G1 X228.23 Y124.954 E5.62546
G1 X229.003 Y125.196 E5.65332
G1 X229.94 Y125.526 E5.68748
G1 X230.694 Y125.822 E5.71534
G1 X231.652 Y126.237 E5.75124
G1 X232.36 Y126.573 E5.7782
G1 X233.212 Y127.013 E5.81117
G1 X233.91 Y127.404 E5.83869
G1 X234.815 Y127.954 E5.87511
G1 X235.388 Y128.326 E5.8986
G1 X235.995 Y128.746 E5.92399
G1 X236.411 Y129.048 E5.94167
G1 X236.79 Y129.336 E5.95804
G1 X237.053 Y129.541 E5.96951
G1 X237.451 Y129.862 E5.98709
G1 X237.814 Y130.168 E6.00342
G1 X238.155 Y130.467 E6.01902
G1 X238.391 Y130.679 E6.02993
G1 X238.8 Y131.058 E6.0491
G1 X239.153 Y131.4 E6.06601
G1 X239.481 Y131.731 E6.08203
G1 X239.701 Y131.959 E6.09293
G1 X240.079 Y132.362 E6.11193
G1 X240.394 Y132.712 E6.12812
G1 X240.731 Y133.102 E6.14585
G1 X240.925 Y133.333 E6.15622
G1 X241.179 Y133.643 E6.17001
G1 X241.478 Y134.023 E6.18664
G1 X241.82 Y134.478 E6.20621
G1 X242.01 Y134.739 E6.21731
G1 X242.307 Y135.158 E6.23498
G1 X242.575 Y135.553 E6.25139
G1 X242.835 Y135.954 E6.26783
G1 X243.015 Y136.241 E6.27948
G1 X243.261 Y136.646 E6.29578
G1 X243.498 Y137.054 E6.312
G1 X243.849 Y137.689 E6.33695
G1 X244.047 Y138.063 E6.35151
G1 X244.177 Y138.32 E6.36141
G1 X244.332 Y138.639 E6.37361
G1 X244.601 Y139.214 E6.39544
G1 X244.727 Y139.494 E6.406
G1 X244.839 Y139.751 E6.41564
G1 X245.014 Y140.176 E6.43145
G1 X245.302 Y140.916 E6.45876
G1 X245.499 Y141.463 E6.47875
G1 X245.599 Y141.764 E6.48966
G1 X245.679 Y142.014 E6.49869
G1 X245.886 Y142.688 E6.52294
G1 X246.024 Y143.173 E6.54028
G1 X246.109 Y143.5 E6.5519
G1 X246.176 Y143.77 E6.56147
G1 X246.329 Y144.423 E6.58453
G1 X246.437 Y144.939 E6.60266
G1 X246.501 Y145.282 E6.61466
G1 X246.547 Y145.543 E6.62378
G1 X246.65 Y146.175 E6.6458
G1 X246.722 Y146.695 E6.66385
G1 X246.765 Y147.064 E6.67663
G1 X246.795 Y147.348 E6.68645
G1 X246.851 Y147.96 E6.70758
G1 X246.897 Y148.79 E6.73617
G1 X246.922 Y150.088 E6.78082
G1 X246.91 Y150.877 E6.80796
G1 X246.875 Y151.588 E6.83244
G1 X246.847 Y152 E6.84664
G1 X246.807 Y152.47 E6.86286
G1 X246.767 Y152.868 E6.87662
G1 X246.708 Y153.359 E6.89363
G1 X246.652 Y153.764 E6.90769
G1 X246.564 Y154.327 E6.92728
G1 X246.495 Y154.723 E6.94111
G1 X246.411 Y155.16 E6.95641
G1 X246.326 Y155.563 E6.97058
G1 X246.206 Y156.086 E6.98903
G1 X246.117 Y156.448 E7.00185
G1 X246.016 Y156.831 E7.01547
G1 X245.915 Y157.19 E7.0283
G1 X245.723 Y157.833 E7.05138
G1 X245.59 Y158.249 E7.0664
G1 X245.525 Y158.44 E7.07334
G1 X245.398 Y158.794 E7.08627
G1 X245.079 Y159.64 E7.11736
G1 X244.783 Y160.351 E7.14385
G1 X244.339 Y161.326 E7.1807
G1 X244.168 Y161.684 E7.19434
G1 X244.062 Y161.897 E7.20252
G1 X243.908 Y162.197 E7.21412
G1 X243.723 Y162.543 E7.22761
G1 X243.482 Y162.971 E7.24451
G1 X243.28 Y163.313 E7.25817
G1 X243.051 Y163.684 E7.27316
G1 X242.493 Y164.552 E7.30865
G1 X242.041 Y165.205 E7.33596
G1 X241.443 Y166.008 E7.37039
G1 X240.951 Y166.624 E7.3975
G1 X240.31 Y167.372 E7.43138
G1 X239.769 Y167.961 E7.45889
G1 X239.051 Y168.69 E7.49408
G1 X238.462 Y169.247 E7.52195
G1 X237.7 Y169.919 E7.5569
G1 X237.092 Y170.42 E7.58399
G1 X236.31 Y171.02 E7.61789
G1 X235.684 Y171.468 E7.64436
G1 X234.869 Y172.011 E7.67804
G1 X234.18 Y172.435 E7.70586
G1 X233.251 Y172.964 E7.74263
G1 X232.546 Y173.334 E7.77001
G1 X231.717 Y173.733 E7.80165
G1 X230.992 Y174.052 E7.82889
G1 X229.993 Y174.451 E7.86589
G1 X229.237 Y174.723 E7.89352
G1 X228.311 Y175.02 E7.92696
G1 X227.578 Y175.228 E7.95317
G1 X226.615 Y175.468 E7.9873
G1 X225.813 Y175.638 E8.01549
G1 X224.83 Y175.81 E8.04981
G1 X224.043 Y175.92 E8.07714
G1 X222.993 Y176.03 E8.11345
G1 X222.194 Y176.086 E8.141
G1 X221.222 Y176.12 E8.17444
G1 X220.44 Y176.121 E8.20134
G1 X219.437 Y176.088 E8.23585
G1 X218.653 Y176.035 E8.26287
G1 X217.666 Y175.935 E8.29699
G1 X216.871 Y175.827 E8.32458
G1 X215.843 Y175.65 E8.36046
G1 X215.465 Y175.578 E8.37369
G1 X215.228 Y175.529 E8.38202
G1 X214.888 Y175.453 E8.394
G1 X214.586 Y175.381 E8.40467
G1 X214.188 Y175.279 E8.4188
G1 X213.497 Y175.088 E8.44346
G1 X213.135 Y174.981 E8.45644
G1 X212.808 Y174.879 E8.46822
G1 X212.524 Y174.787 E8.47849
G1 X210.233 Y174.007 E8.56172
G1 X207.856 Y173.268 E8.64733
G1 X205.432 Y172.589 E8.7339
G1 X203.015 Y171.984 E8.81959
G1 X200.554 Y171.444 E8.90624
G1 X198.108 Y170.978 E8.99187
G1 X195.663 Y170.584 E9.07704
G1 X193.139 Y170.249 E9.1646
G1 X190.703 Y169.996 E9.24883
G1 X188.149 Y169.804 E9.33691
G1 X185.691 Y169.689 E9.42154
G1 X182.714 Y169.64 E9.52393
G1 X117.291 Y169.641 E11.7739
G1 X114.707 Y169.678 E11.86277
G1 X112.181 Y169.785 E11.94972
G1 X109.699 Y169.961 E12.03529
G1 X107.232 Y170.206 E12.12055
G1 X104.734 Y170.526 E12.20716
G1 X102.253 Y170.915 E12.29353
G1 X99.777 Y171.375 E12.38014
G1 X97.375 Y171.892 E12.46464
G1 X94.957 Y172.485 E12.55026
G1 X92.504 Y173.161 E12.63777
G1 X90.137 Y173.885 E12.72289
G1 X88.458 Y174.46 E12.78393
G1 X88.303 Y174.512 E12.78955
G1 X87.327 Y174.831 E12.82486
G1 X86.925 Y174.954 E12.83932
G1 X85.918 Y175.243 E12.87535
G1 X85.168 Y175.432 E12.90195
G1 X84.213 Y175.638 E12.93555
G1 X83.433 Y175.778 E12.9628
G1 X82.438 Y175.922 E12.99738
G1 X81.624 Y176.01 E13.02553
G1 X80.623 Y176.083 E13.06005
G1 X79.864 Y176.114 E13.08618
G1 X78.85 Y176.121 E13.12105
G1 X78.036 Y176.098 E13.14905
G1 X77.047 Y176.035 E13.18314
G1 X76.25 Y175.956 E13.21068
G1 X75.219 Y175.818 E13.24645
G1 X74.445 Y175.688 E13.27345
G1 X73.503 Y175.496 E13.30651
G1 X72.748 Y175.315 E13.33321
G1 X71.77 Y175.046 E13.36809
G1 X70.997 Y174.804 E13.39595
G1 X70.06 Y174.474 E13.43011
G1 X69.306 Y174.178 E13.45797
G1 X68.348 Y173.763 E13.49388
G1 X67.64 Y173.427 E13.52083
G1 X66.788 Y172.987 E13.5538
G1 X66.09 Y172.596 E13.58132
G1 X65.185 Y172.046 E13.61774
G1 X64.612 Y171.674 E13.64123
G1 X64.005 Y171.254 E13.66662
G1 X63.583 Y170.948 E13.68455
G1 X63.194 Y170.652 E13.70136
G1 X62.936 Y170.45 E13.71263
G1 X62.548 Y170.137 E13.72977
G1 X62.178 Y169.825 E13.74642
G1 X61.824 Y169.514 E13.76262
G1 X61.588 Y169.3 E13.77358
G1 X61.182 Y168.923 E13.79263
G1 X60.837 Y168.59 E13.80912
G1 X60.511 Y168.261 E13.82505
G1 X60.286 Y168.027 E13.83621
G1 X59.916 Y167.632 E13.85483
G1 X59.611 Y167.293 E13.87051
G1 X59.271 Y166.9 E13.88838
G1 X59.078 Y166.672 E13.89866
G1 X58.826 Y166.365 E13.91231
G1 X58.514 Y165.967 E13.92971
G1 X58.172 Y165.511 E13.94931
G1 X57.986 Y165.256 E13.96016
G1 X57.69 Y164.838 E13.97778
G1 X57.422 Y164.442 E13.99422
G1 X57.161 Y164.039 E14.01074
G1 X56.986 Y163.761 E14.02203
G1 X56.741 Y163.358 E14.03825
G1 X56.505 Y162.951 E14.05443
G1 X56.153 Y162.315 E14.07943
G1 X55.944 Y161.92 E14.0948
G1 X55.815 Y161.664 E14.10466
G1 X55.665 Y161.354 E14.1165
G1 X55.396 Y160.778 E14.13837
G1 X55.269 Y160.496 E14.149
G1 X55.149 Y160.22 E14.15935
G1 X54.975 Y159.798 E14.17505
G1 X54.691 Y159.067 E14.20202
G1 X54.493 Y158.515 E14.22219
G1 X54.397 Y158.225 E14.2327
G1 X54.321 Y157.986 E14.24132
G1 X54.114 Y157.312 E14.26557
G1 X53.976 Y156.827 E14.28291
G1 X53.891 Y156.5 E14.29453
G1 X53.824 Y156.23 E14.3041
G1 X53.671 Y155.577 E14.32716
G1 X53.563 Y155.061 E14.34529
G1 X53.499 Y154.718 E14.35729
G1 X53.452 Y154.452 E14.36658
G1 X53.349 Y153.818 E14.38867
G1 X53.278 Y153.31 E14.40631
G1 X53.235 Y152.943 E14.41902
G1 X53.205 Y152.65 E14.42915
G1 X53.149 Y152.037 E14.45032
G1 X53.103 Y151.208 E14.47887
G1 X53.078 Y149.904 E14.52373
G1 X53.09 Y149.11 E14.55104
G1 X53.125 Y148.406 E14.57528
G1 X53.153 Y148 E14.58927
G1 X53.193 Y147.53 E14.6055
G1 X53.233 Y147.132 E14.61925
G1 X53.292 Y146.641 E14.63626
G1 X53.348 Y146.236 E14.65032
G1 X53.436 Y145.673 E14.66992
G1 X53.505 Y145.277 E14.68374
G1 X53.589 Y144.84 E14.69905
G1 X53.674 Y144.439 E14.71314
G1 X53.796 Y143.907 E14.73191
G1 X53.888 Y143.533 E14.74516
G1 X53.987 Y143.159 E14.75846
G1 X54.087 Y142.805 E14.77112
G1 X54.282 Y142.153 E14.79452
G1 X54.517 Y141.45 E14.82001
G1 X54.898 Y140.422 E14.85772
G1 X55.217 Y139.648 E14.88651
G1 X55.668 Y138.658 E14.92392
G1 X55.848 Y138.281 E14.93829
G1 X55.947 Y138.083 E14.9459
G1 X56.085 Y137.816 E14.95624
G1 X56.271 Y137.467 E14.96984
G1 X56.529 Y137.009 E14.98792
G1 X56.73 Y136.67 E15.00147
G1 X56.949 Y136.316 E15.01579
G1 X57.507 Y135.448 E15.05127
G1 X57.959 Y134.795 E15.07859
G1 X58.557 Y133.992 E15.11302
G1 X59.052 Y133.373 E15.14028
G1 X59.696 Y132.622 E15.1743
G1 X60.234 Y132.036 E15.20166
G1 X60.952 Y131.307 E15.23685
G1 X61.543 Y130.748 E15.26482
G1 X62.302 Y130.079 E15.29962
G1 X62.908 Y129.58 E15.32662
G1 X63.69 Y128.98 E15.36051
G1 X64.316 Y128.532 E15.38699
G1 X65.131 Y127.989 E15.42067
G1 X65.82 Y127.565 E15.44849
G1 X66.749 Y127.036 E15.48526
G0 F6000 X66.966 Y127.418
G1 F1200 X67.645 Y127.062 E15.51162
G1 X68.474 Y126.663 E15.54326
G1 X69.171 Y126.357 E15.56944
G1 X70.17 Y125.958 E15.60644
G1 X70.897 Y125.696 E15.63301
G1 X71.826 Y125.398 E15.66657
G1 X72.534 Y125.197 E15.69188
G1 X73.494 Y124.958 E15.7259
G1 X74.263 Y124.795 E15.75293
G1 X75.246 Y124.623 E15.78725
G1 X76.002 Y124.517 E15.81351
G1 X77.052 Y124.407 E15.84982
G1 X77.823 Y124.354 E15.87639
G1 X78.801 Y124.32 E15.91005
G1 X79.554 Y124.319 E15.93595
G1 X80.551 Y124.352 E15.97025
G1 X81.303 Y124.403 E15.99617
G1 X82.29 Y124.503 E16.03029
G1 X83.054 Y124.607 E16.05681
G1 X84.082 Y124.784 E16.09268
G1 X84.446 Y124.853 E16.10542
G1 X84.683 Y124.902 E16.11375
G1 X85.01 Y124.975 E16.12527
G1 X85.312 Y125.047 E16.13595
G1 X85.695 Y125.145 E16.14954
G1 X86.386 Y125.336 E16.1742
G1 X86.734 Y125.439 E16.18668
G1 X87.061 Y125.541 E16.19846
G1 X87.335 Y125.63 E16.20837
G1 X89.598 Y126.401 E16.29059
G1 X91.995 Y127.147 E16.37692
G1 X94.433 Y127.83 E16.464
G1 X96.901 Y128.447 E16.55148
G1 X99.342 Y128.983 E16.63743
G1 X101.783 Y129.449 E16.7229
G1 X104.264 Y129.85 E16.80933
G1 X106.774 Y130.183 E16.89641
G1 X109.299 Y130.445 E16.98371
G1 X111.753 Y130.63 E17.06834
G1 X114.271 Y130.749 E17.15504
G1 X117.333 Y130.799 E17.26036
G1 X182.713 Y130.799 E19.50884
G1 X185.317 Y130.762 E19.5984
G1 X187.832 Y130.655 E19.68497
G1 X190.321 Y130.479 E19.77079
G1 X192.848 Y130.228 E19.85812
G1 X195.331 Y129.911 E19.94421
G1 X197.806 Y129.522 E20.03037
G1 X200.295 Y129.059 E20.11744
G1 X202.707 Y128.54 E20.20229
G1 X205.194 Y127.931 E20.29034
G1 X207.599 Y127.269 E20.37613
G1 X210 Y126.534 E20.46249
G1 X211.692 Y125.954 E20.524
G1 X211.843 Y125.903 E20.52948
G1 X212.81 Y125.587 E20.56447
G1 X213.196 Y125.469 E20.57835
G1 X214.203 Y125.18 E20.61438
G1 X214.924 Y124.999 E20.63994
G1 X215.879 Y124.793 E20.67354
G1 X216.63 Y124.657 E20.69979
G1 X217.625 Y124.513 E20.73437
G1 X218.399 Y124.429 E20.76114
G1 X219.403 Y124.355 E20.79576
G1 X220.153 Y124.325 E20.82158
G1 X221.164 Y124.319 E20.85635
G1 X221.936 Y124.341 E20.88291
G1 X222.925 Y124.404 E20.91699
G1 X223.692 Y124.48 E20.9435
G1 X224.723 Y124.618 E20.97927
G1 X225.467 Y124.744 E21.00522
G1 X226.409 Y124.936 E21.03828
G1 X227.136 Y125.109 E21.06398
G1 X228.114 Y125.378 E21.09887
G1 X228.857 Y125.611 E21.12565
G1 X229.794 Y125.941 E21.15981
G1 X230.519 Y126.226 E21.1866
G1 X231.477 Y126.641 E21.22251
G1 X232.158 Y126.964 E21.24843
G1 X233.01 Y127.404 E21.2814
G1 X233.682 Y127.78 E21.30789
G1 X234.587 Y128.33 E21.34431
G1 X235.138 Y128.688 E21.36691
G1 X235.745 Y129.108 E21.39229
G1 X236.145 Y129.398 E21.40928
G1 X236.524 Y129.686 E21.42565
G1 X236.776 Y129.884 E21.43667
G1 X237.174 Y130.205 E21.45426
G1 X237.524 Y130.499 E21.46998
G1 X237.865 Y130.798 E21.48558
G1 X238.092 Y131.002 E21.49607
G1 X238.501 Y131.381 E21.51525
G1 X238.841 Y131.71 E21.53152
G1 X239.169 Y132.041 E21.54755
G1 X239.38 Y132.26 E21.558
G1 X239.758 Y132.663 E21.57701
G1 X240.061 Y133 E21.59259
G1 X240.398 Y133.39 E21.61032
G1 X240.585 Y133.612 E21.6203
G1 X240.839 Y133.922 E21.63408
G1 X241.126 Y134.288 E21.65008
G1 X241.468 Y134.743 E21.66965
G1 X241.651 Y134.993 E21.68031
G1 X241.948 Y135.412 E21.69797
G1 X242.206 Y135.792 E21.71377
G1 X242.466 Y136.193 E21.7302
G1 X242.639 Y136.47 E21.74144
G1 X242.885 Y136.875 E21.75773
G1 X243.113 Y137.267 E21.77333
G1 X243.464 Y137.902 E21.79828
G1 X243.654 Y138.262 E21.81228
G1 X243.784 Y138.519 E21.82218
G1 X243.933 Y138.825 E21.83389
G1 X244.202 Y139.4 E21.85572
G1 X244.324 Y139.669 E21.86588
G1 X244.436 Y139.926 E21.87552
G1 X244.604 Y140.335 E21.89073
G1 X244.892 Y141.075 E21.91804
G1 X245.082 Y141.601 E21.93727
G1 X245.182 Y141.902 E21.94818
G1 X245.259 Y142.143 E21.95688
G1 X245.466 Y142.817 E21.98113
G1 X245.598 Y143.283 E21.99778
G1 X245.683 Y143.61 E22.0094
G1 X245.747 Y143.871 E22.01864
G1 X245.9 Y144.524 E22.04171
G1 X246.005 Y145.02 E22.05915
G1 X246.069 Y145.363 E22.07115
G1 X246.112 Y145.614 E22.0799
G1 X246.215 Y146.246 E22.10193
G1 X246.285 Y146.746 E22.11929
G1 X246.328 Y147.115 E22.13206
G1 X246.357 Y147.389 E22.14154
G1 X246.413 Y148.001 E22.16268
G1 X246.457 Y148.798 E22.19013
G1 X246.482 Y150.096 E22.23477
G1 X246.471 Y150.856 E22.26091
G1 X246.436 Y151.567 E22.2854
G1 X246.409 Y151.962 E22.29901
G1 X246.369 Y152.432 E22.31523
G1 X246.33 Y152.815 E22.32847
G1 X246.271 Y153.306 E22.34548
G1 X246.217 Y153.696 E22.35902
G1 X246.129 Y154.259 E22.37862
G1 X246.062 Y154.64 E22.39192
G1 X245.978 Y155.077 E22.40723
G1 X245.897 Y155.464 E22.42083
G1 X245.777 Y155.987 E22.43928
G1 X245.691 Y156.335 E22.45161
G1 X245.59 Y156.718 E22.46523
